!!!COM: Palestrina, Giovanni Perluigi da
!!!OPR: Jesu Nostra Redemptio
!!!OTL: Kyrie
**kern	**kern	**kern	**kern
*Ibass	*Itenor	*Icalto	*Icant
!Bassus	!Tenor	!Altus	!Cantus
*clefF4	*clefGv2	*clefG2	*clefG2
*k[]	*k[]	*k[]	*k[]
*E:phr	*E:phr	*E:phr	*E:phr
*M4/2	*M4/2	*M4/2	*M4/2
=1	=1	=1	=1
0F	0r	1r	0r
.	.	[1c	.
=2	=2	=2	=2
1.E	0r	1c]	0r
.	.	[1B	.
2F	.	.	.
=3	=3	=3	=3
2G	0r	2B]	0r
2A	.	2c	.
1G	.	2d	.
.	.	2e	.
=4	=4	=4	=4
2F	0r	2.d	1r
2D	.	.	.
.	.	4c	.
2.F	.	4A	[1f
.	.	4B	.
.	.	[2c	.
4E	.	.	.
=5	=5	=5	=5
1D	0r	2c]	1f]
.	.	2B	.
1C	.	2.c	[1e
.	.	4B	.
=6	=6	=6	=6
2r	0c	1A	2e]
2F	.	.	2f
2E	.	2r	2g
2F	.	2f	2a
=7	=7	=7	=7
2.G	1.B	2e	1.g
.	.	2d	.
4F	.	.	.
1E	.	1e	.
.	2c	.	2g
=8	=8	=8	=8
2F	2d	2A	2f
2G	2e	2B	2g
2F	1d	2A	2a
2G	.	2B	4g
.	.	.	4f
=9	=9	=9	=9
2.A	1c	4c	4e
.	.	4A	4d
.	.	2.c	1e
4G	.	.	.
1F	1A	.	.
.	.	4B	.
.	.	[2A	2d
=10	=10	=10	=10
1E	2c	2A]	1e
.	2B	2G	.
1AA	1A	4c	2r
.	.	4d	.
.	.	4e	2cc
.	.	4f	.
=11	=11	=11	=11
2r	1E	2g	2b
2C	.	2e	2cc
2BB	1r	2d	2dd
2C	.	2e	4cc
.	.	.	4b
=12	=12	=12	=12
1D	1F	2f	2.a
.	.	2d	.
.	.	.	4b
2.C	[1E	4g	2cc
.	.	4f	.
.	.	4e	2g
4BB	.	4d	.
=13	=13	=13	=13
1AA	2E]	1c	1a
.	2F	.	.
2GG	2G	2B	2d
2D	2A	2d	2f
=14	=14	=14	=14
2E	1G	2B	2e
2C	.	2c	2e
2.D	1F	2A	4d
.	.	.	4e
.	.	[2d	4f
4E	.	.	4g
=15	=15	=15	=15
4F	2D	2d]	2.a
4G	.	.	.
2A	1F	2.c	.
.	.	.	4b
4AA	.	.	1cc
4BB	.	4d	.
4C	[2E	4e	.
4D	.	4f	.
=16	=16	=16	=16
2E	4E]	2g	2b
.	4F	.	.
2C	4G	1e	2cc
.	4E	.	.
1D	1F	.	1a
.	.	2d	.
=17	=17	=17	=17
0AA	1E	[0e	2.cc
.	.	.	4b
.	1c	.	1a
=18	=18	=18	=18
0E	0B	0e]	0g#
=19	=19	=19	=19
0r	0r	0c	0r
=20	=20	=20	=20
0r	0r	1d	0r
.	.	1f	.
=21	=21	=21	=21
0r	0r	2.e	0g
.	.	4d	.
.	.	2c	.
.	.	2B	.
=22	=22	=22	=22
0r	0r	2A	1a
.	.	4F	.
.	.	4G	.
.	.	4A	[1cc
.	.	4B	.
.	.	4c	.
.	.	4d	.
=23	=23	=23	=23
0r	0r	4e	2cc]
.	.	4f	.
.	.	4g	2b
.	.	4e	.
.	.	2f	2a
.	.	2e	[2g
=24	=24	=24	=24
0r	0G	2d	4g]
.	.	.	4f
.	.	1c	2e
.	.	.	2d
.	.	2B	2g
=25	=25	=25	=25
0r	1A	1c	2e
.	.	.	2a
.	[1c	[1e	4g
.	.	.	4f
.	.	.	4e
.	.	.	4d
=26	=26	=26	=26
0C	2c]	2e]	2c
.	2B	2d	2d
.	2A	2c	1e
.	2G	2B	.
=27	=27	=27	=27
1D	2.F	0A	2f
.	.	.	1a
.	4E	.	.
[1F	1D	.	.
.	.	.	4g
.	.	.	4f
=28	=28	=28	=28
2F]	2C	1c	1g
2E	2c	.	.
1D	2B	2d	1r
.	[2A	2f	.
=29	=29	=29	=29
2C	4A]	2e	2r
.	4G	.	.
2BB	1G	2d	2g
1AA	.	1c	2a
.	2F#	.	[2cc
=30	=30	=30	=30
1GG	1G	2r	2cc]
.	.	2d	1b
1r	1E	2e	.
.	.	[2g	4a
.	.	.	4g
=31	=31	=31	=31
0r	1D	2g]	1a
.	.	2f	.
.	2r	2e	2.g
.	2G	2d	.
.	.	.	4f
=32	=32	=32	=32
0r	2A	4c	1e
.	.	4B	.
.	1c	4A	.
.	.	4G	.
.	.	2F	2.d
.	2B	2G	.
.	.	.	4e
=33	=33	=33	=33
1r	1A	1c	2f
.	.	.	2.e
2r	2G	2B	.
.	.	.	4d
2D	2F	2A	[2d
=34	=34	=34	=34
2E	1E	1G	2d]
1G	.	.	2c#
.	1D	2r	1d
2F	.	2d	.
=35	=35	=35	=35
1E	0r	2e	1g
.	.	2g	.
2D	.	2f	2a
4C	.	[2e	2cc
4D	.	.	.
=36	=36	=36	=36
4E	0G	2e]	4b
4F	.	.	4a
2G	.	2d	4g
.	.	.	4f
2C	.	2c	4e
.	.	.	4f#
2E	.	2B	[2g
=37	=37	=37	=37
1D	1A	2r	2g]
.	.	2d	2f#
1C	[1c	1e	2g
.	.	.	2c
=38	=38	=38	=38
1GG	2c]	1g	1d
.	2B	.	.
2AA	2A	2f	4c
.	.	.	4d
2C	[2G	2e	4e
.	.	.	4f
=39	=39	=39	=39
2BB	4G]	2d	0g
.	4F	.	.
2C	2E	1c	.
1GG	1D	.	.
.	.	2B	.
=40	=40	=40	=40
0C	0C	0c	0e
=41	=41	=41	=41
0r	0r	0d	0r
=42	=42	=42	=42
0r	0r	1d	0r
.	.	1c	.
=43	=43	=43	=43
0D	0r	1d	0r
.	.	[1f	.
=44	=44	=44	=44
1D	0r	2f]	0r
.	.	2d	.
1C	.	1e	.
=45	=45	=45	=45
1D	0A	1.f	0r
[1F	.	.	.
.	.	4e	.
.	.	4d	.
=46	=46	=46	=46
2F]	1A	2c	0r
2D	.	2d	.
1E	1G	2B	.
.	.	2e	.
=47	=47	=47	=47
2F	1A	2c	0a
2D	.	2.f	.
2.A	[1c	.	.
.	.	4e	.
.	.	[2e	.
4G	.	.	.
=48	=48	=48	=48
1F	2c]	2e]	1a
.	2A	2d	.
1E	1B	[1e	1g
=49	=49	=49	=49
0r	2c	2e]	1a
.	2d	1f	.
.	2.A	.	[1cc
.	.	4e	.
.	4B	4d	.
=50	=50	=50	=50
0r	2c	2e	2cc]
.	2d	2f#	2a
.	1G	1g	2b
.	.	.	[2dd
=51	=51	=51	=51
1r	1c	1e	4dd]
.	.	.	4cc
.	.	.	1cc
1G	1d	2.g	.
.	.	.	2b
.	.	4f	.
=52	=52	=52	=52
1A	1c	2e	1cc
.	.	4d	.
.	.	4c	.
1G	2B	[1d	1r
.	2G	.	.
=53	=53	=53	=53
2F	2A	1d]	0r
2D	2B	.	.
2E	1c	1r	.
2F	.	.	.
=54	=54	=54	=54
1G	2B	0r	1g
.	1e	.	.
1F	.	.	1a
.	2d	.	.
=55	=55	=55	=55
2C	1e	1c	1g
2E	.	.	.
1D	[1A	1d	2f
.	.	.	2d
=56	=56	=56	=56
1AA	1A]	1c	2e
.	.	.	2f
1E	1r	2B	1g
.	.	2G	.
=57	=57	=57	=57
1D	1r	2A	1f
.	.	2B	.
1C	1G	2c	2e
.	.	[2e	[2g
=58	=58	=58	=58
2r	1A	2e]	2g]
2D	.	1d	2f#
1E	1G	.	1g
.	.	2c#	.
=59	=59	=59	=59
1D	2F	2d	2r
.	2D	2A	2f
2C	2E	1c	2g
2AA	2F	.	4f
.	.	.	4e
=60	=60	=60	=60
2BB	1G	2r	2d
2C	.	2c	1e
1D	1F	2A	.
.	.	2B	2d
=61	=61	=61	=61
2.C	[0E	1c	1e
4BB	.	.	.
1AA	.	1c	1a
=62	=62	=62	=62
[0E	1E_	[0B	[0g#
.	1E_	.	.
=63	=63	=63	=63
0E]	0E]	0B]	0g#]
==	==	==	==
*-	*-	*-	*-
!!!CDT: 1525/^1526/-1594/2/2
!!!OCY: Italia
!!!AGN: Mass (Paraphrase)
!!!AST: renaissance, vocal
!!!ASW: Hymn
!!!PWK: Masses, Book 4
!!!RNB: Cadence finals: C,A
!!!YOR: Le Opere Complete, v. 10, p. 38
!!!YOO: Rome, Italy: Fratelli Scalera
!!!END: 1992//
!!!EED: John Miller
!!!YEC: Copyright 2000, John Miller
!!!YEN: United States of America
!!!YEM: Rights to all derivative electronic formats reserved.
!!!YEM: Refer to licensing agreement for further details.
!!!YEM: This file must be accompanied by the licensing agreement.
!!!YEM: A copy of the licensing agreement may be found at http://www.music-cog.ohio-state.edu/HumdrumDatabases/Palestrina/license.txt
!!!EMD: converted to Humdrum by Bret Aarden
